src/icons/exit.svg

<?xml version="1.0" encoding="UTF-8"?>
<svg version="1.1" viewBox="0 0 18 18" xmlns="http://www.w3.org/2000/svg">
<g fill="none" fill-rule="evenodd">
<g transform="translate(-87 -213)" fill="#000">
<g transform="translate(87 213)">
<path d="m7.1 12.6 1.4 1.4 5-5-5-5-1.4 1.4 2.6 2.6h-9.7v2h9.7l-2.6 2.6zm8.9-12.6h-14c-1.1 0-2 0.9-2 2v4h2v-4h14v14h-14v-4h-2v4c0 1.1 0.9 2 2 2h14c1.1 0 2-0.9 2-2v-14c0-1.1-0.9-2-2-2z"/>
</g>
</g>
</g>
</svg>

<?xml version="1.0" ?><svg height="18px" version="1.1" viewBox="0 0 18 18" width="18px" xmlns="http://www.w3.org/2000/svg" xmlns:sketch="http://www.bohemiancoding.com/sketch/ns" xmlns:xlink="http://www.w3.org/1999/xlink"><title/><desc/><defs/><g fill="none" fill-rule="evenodd" id="Page-1" stroke="none" stroke-width="1"><g fill="#000000" id="Core" transform="translate(-87.000000, -213.000000)"><g id="exit-to-app" transform="translate(87.000000, 213.000000)"><path d="M7.1,12.6 L8.5,14 L13.5,9 L8.5,4 L7.1,5.4 L9.7,8 L0,8 L0,10 L9.7,10 L7.1,12.6 L7.1,12.6 Z M16,0 L2,0 C0.9,0 0,0.9 0,2 L0,6 L2,6 L2,2 L16,2 L16,16 L2,16 L2,12 L0,12 L0,16 C0,17.1 0.9,18 2,18 L16,18 C17.1,18 18,17.1 18,16 L18,2 C18,0.9 17.1,0 16,0 L16,0 Z" id="Shape"/></g></g></g></svg>
